X:1
T: Dunderave
C:
R:Reel
Q: 232
K:A
M:4/4
L:1/8
|:cd Bc Ac ed|cd Bc A2 Bc|de cd Bd fe|de cd B2 ed|
cd Bc Ac ed|cd Bc A2 Bc|de cd Bd fe|de cd B2 ed|
ca ga ec Ac|ea ga e2 dc|fb ab fd Bc|de fg af ed|
ca ga ec Ac|ea ga e2 dc|Bc de fg af|ec Ac B2 e2:|
